X:2103 
T:Harrish ny sleityn Nalbin 
C:Tom Kermode, Bradda
O:Isle of Man
C:Traditional
Z:Clague collection
B:Kiaull Vannin #103  
M:3/4 
L:1/4
Q:100 
K:D 
A/c/|d A B|A/F/ D F/D/|E D D|D2 A/c/|d A B|A/F/ D F/D/|E D D|D2 A| 
d A B|B/A/ A B/c/|d A B/c/|d2 f/e/|d A B|A/F/ D F/D/|E D D|D2|| 

